X:175
T: Heinrich schlief bei seiner Neuvermhlten (3-13), S. 36
N: K1150
O: Luxemburg
S: KINTZELE, Guillaume: An der Ucht, Bd. 3 Luxemburg 1928]
R: Untreue, Nachsicht]
M: 4/4
L: 1/8
K: F
CC | F3FFFAF | FEE2z2
CE | G3ABGFG | A2F2z2
Fd | d3cBAGF | EGc2z2
GB | A3cFdcE | G2F2z2
Fd | d3cBAGF | EGc2z2
GB | A3cFdcE | G2F2z2

